svg/lock_remove_outline.svg

<svg xmlns="http://www.w3.org/2000/svg" viewBox="0 0 24 24"><path d="M14 15c0 1.11-.89 2-2 2a2 2 0 0 1-2-2c0-1.11.89-2 2-2a2 2 0 0 1 2 2m-.91 5c.12.72.37 1.39.72 2H6a2 2 0 0 1-2-2V10c0-1.11.89-2 2-2h1V6c0-2.76 2.24-5 5-5s5 2.24 5 5v2h1a2 2 0 0 1 2 2v3.09c-.33-.05-.66-.09-1-.09s-.67.04-1 .09V10H6v10zM9 8h6V6c0-1.66-1.34-3-3-3S9 4.34 9 6zm13.54 8.88-1.42-1.41L19 17.59l-2.12-2.12-1.41 1.41L17.59 19l-2.12 2.12 1.41 1.42L19 20.41l2.12 2.13 1.42-1.42L20.41 19z"/></svg>

<?xml version="1.0" encoding="UTF-8"?><!DOCTYPE svg PUBLIC "-//W3C//DTD SVG 1.1//EN" "http://www.w3.org/Graphics/SVG/1.1/DTD/svg11.dtd"><svg xmlns="http://www.w3.org/2000/svg" xmlns:xlink="http://www.w3.org/1999/xlink" version="1.1" id="mdi-lock-remove-outline" width="24" height="24" viewBox="0 0 24 24"><path d="M14 15C14 16.11 13.11 17 12 17C10.89 17 10 16.1 10 15C10 13.89 10.89 13 12 13C13.11 13 14 13.9 14 15M13.09 20C13.21 20.72 13.46 21.39 13.81 22H6C4.89 22 4 21.1 4 20V10C4 8.89 4.89 8 6 8H7V6C7 3.24 9.24 1 12 1S17 3.24 17 6V8H18C19.11 8 20 8.9 20 10V13.09C19.67 13.04 19.34 13 19 13C18.66 13 18.33 13.04 18 13.09V10H6V20H13.09M9 8H15V6C15 4.34 13.66 3 12 3S9 4.34 9 6V8M22.54 16.88L21.12 15.47L19 17.59L16.88 15.47L15.47 16.88L17.59 19L15.47 21.12L16.88 22.54L19 20.41L21.12 22.54L22.54 21.12L20.41 19L22.54 16.88Z" /></svg>
